icons/svg/checkerboard.svg

<svg xmlns="http://www.w3.org/2000/svg" version="1.1" baseProfile="full" width="24" height="24" viewBox="0 0 24.00 24.00" xml:space="preserve"><path fill="#000" fill-opacity="1" stroke-width="1.333" stroke-linejoin="miter" d="M3 3h18v18H3V3zm2 2v7h7v7h7v-7h-7V5H5z"/></svg>

﻿<?xml version="1.0" encoding="utf-8"?>
<!DOCTYPE svg PUBLIC "-//W3C//DTD SVG 1.1//EN" "http://www.w3.org/Graphics/SVG/1.1/DTD/svg11.dtd">
<svg xmlns="http://www.w3.org/2000/svg" xmlns:xlink="http://www.w3.org/1999/xlink" version="1.1" baseProfile="full" width="24" height="24" viewBox="0 0 24.00 24.00" enable-background="new 0 0 24.00 24.00" xml:space="preserve">
	<path fill="#000000" fill-opacity="1" stroke-width="1.33333" stroke-linejoin="miter" d="M 3,3L 21,3L 21,21L 3,21L 3,3 Z M 5,5L 5,12L 12,12L 12,19L 19,19L 19,12L 12,12L 12,5L 5,5 Z "/>
</svg>
